fa/stopwatch.svg

<svg xmlns="http://www.w3.org/2000/svg" viewBox="0 0 448 512" height="1em" width="1em">
  <path d="M272 0c17.7 0 32 14.33 32 32s-14.3 32-32 32h-16v34.45c37.5 5.75 71.7 21.55 99.7 44.55l21.7-21.6c12.5-12.5 32.7-12.5 45.2 0s12.5 32.7 0 45.2l-24.1 24.2C419.7 223.3 432 262.2 432 304c0 114.9-93.1 208-208 208S16 418.9 16 304c0-104 76.32-190.2 176-205.55V64h-16c-17.7 0-32-14.33-32-32s14.3-32 32-32h96zm-24 192c0-13.3-10.7-24-24-24s-24 10.7-24 24v128c0 13.3 10.7 24 24 24s24-10.7 24-24V192z"/>
</svg>

<svg xmlns="http://www.w3.org/2000/svg" viewBox="0 0 448 512" height="1em" width="1em">
  <path d="M272 0C289.7 0 304 14.33 304 32C304 49.67 289.7 64 272 64H256V98.45C293.5 104.2 327.7 120 355.7 143L377.4 121.4C389.9 108.9 410.1 108.9 422.6 121.4C435.1 133.9 435.1 154.1 422.6 166.6L398.5 190.8C419.7 223.3 432 262.2 432 304C432 418.9 338.9 512 224 512C109.1 512 16 418.9 16 304C16 200 92.32 113.8 192 98.45V64H176C158.3 64 144 49.67 144 32C144 14.33 158.3 0 176 0L272 0zM248 192C248 178.7 237.3 168 224 168C210.7 168 200 178.7 200 192V320C200 333.3 210.7 344 224 344C237.3 344 248 333.3 248 320V192z"/>
</svg>
